X:1
T: Spirit of the Dance
L: 1/8
M: 6/8
R: jig
K: G
"G"G2D "C"E2D|"G"G2D "C"E2D| "G"GAB "Am"c2B | "C"A2G "D"FED|
"G"G2D "C"E2D|"G"G2D "C"E2D| "G"GAB "Am"cde | "D"cAF "G"G3:|
|: DGB "Am"c3| "G"B3 "D"A3| ABc "G"d3 | "D/F#" c3 "Em"B3|
 DGB "Am"c3| "G"B3 "D"A3| "C"Bcd BAG| "D"B2A "G"G3 :|